;FLAVOR:Marlin
;TIME:11111
;Filament used: 12.809m
;Layer height: 0.28
;MINX:31.5
;MINY:66.5
;MINZ:0.28
;MAXX:188.5
;MAXY:153.5
;MAXZ:13.16
;Generated with Cura_SteamEngine 4.4.1
M140 S70
M105
M190 S70
M104 S205
M105
M109 S205
M82 ;absolute extrusion mode
M201 X500.00 Y500.00 Z100.00 E5000.00 ;Setup machine max acceleration
M203 X500.00 Y500.00 Z10.00 E50.00 ;Setup machine max feedrate
M204 P500.00 R1000.00 T500.00 ;Setup Print/Retract/Travel acceleration
M205 X8.00 Y8.00 Z0.40 E5.00 ;Setup Jerk
M220 S100 ;Reset Feedrate
M221 S100 ;Reset Flowrate

G28 ;Home

G92 E0 ;Reset Extruder
G1 Z2.0 F3000 ;Move Z Axis up
G1 X10.1 Y20 Z0.28 F5000.0 ;Move to start position
G1 X10.1 Y200.0 Z0.28 F1500.0 E15 ;Draw the first line
G1 X10.4 Y200.0 Z0.28 F5000.0 ;Move to side a little
G1 X10.4 Y20 Z0.28 F1500.0 E30 ;Draw the second line
G92 E0 ;Reset Extruder
G1 Z2.0 F3000 ;Move Z Axis up

G92 E0
G92 E0
G1 F1500 E-6.5
;LAYER_COUNT:47
;LAYER:0
M107
G0 F6000 X36.907 Y68.042 Z0.28
;TYPE:SKIRT
G1 F1500 E0
G1 F1200 X37.734 Y67.599 E0.04369
G1 X38.596 Y67.229 E0.08737
G1 X39.486 Y66.933 E0.13104
G1 X40.398 Y66.714 E0.17471
G1 X41.325 Y66.573 E0.21837
G1 X42.201 Y66.513 E0.25926
G1 X42.522 Y66.504 E0.27421
G1 X42.83 Y66.5 E0.28856
G1 X161.793 Y66.5 E5.82797
G1 X161.951 Y66.501 E5.83533
G1 X162.649 Y66.511 E5.86783
G1 X163.585 Y66.565 E5.91149
G1 X164.513 Y66.697 E5.95514
G1 X165.427 Y66.909 E5.99883
G1 X166.319 Y67.198 E6.04249
G1 X167.033 Y67.492 E6.07844
G1 X169.884 Y68.785 E6.22421
G1 X172.22 Y69.762 E6.34212
G1 X174.593 Y70.679 E6.46058
G1 X176.922 Y71.499 E6.57555
G1 X179.456 Y72.314 E6.6995
G1 X180.568 Y72.654 E6.75364
G1 X181.452 Y72.966 E6.79729
G1 X182.307 Y73.352 E6.84097
G1 X183.125 Y73.81 E6.88463
G1 X183.902 Y74.336 E6.92832
G1 X184.638 Y74.932 E6.97242
G1 X184.776 Y75.054 E6.98099
G1 X185.451 Y75.704 E7.02463
G1 X186.069 Y76.41 E7.06832
G1 X186.624 Y77.166 E7.11199
G1 X187.113 Y77.966 E7.15565
G1 X187.532 Y78.805 E7.19932
G1 X187.878 Y79.677 E7.243
G1 X188.148 Y80.575 E7.28666
G1 X188.341 Y81.493 E7.33034
G1 X188.455 Y82.424 E7.37402
G1 X188.488 Y83.089 E7.40502
G1 X188.498 Y83.622 E7.42985
G1 X188.5 Y83.828 E7.43944
G1 X188.5 Y88.997 E7.68013
G1 X188.499 Y89.157 E7.68758
G1 X188.489 Y89.845 E7.71962
G1 X188.48 Y90.144 E7.73355
G1 X188.472 Y90.331 E7.74226
G1 X188.396 Y93.017 E7.86739
G1 X188.396 Y95.523 E7.98408
G1 X188.446 Y97.532 E8.07765
G1 X188.489 Y98.724 E8.13319
G1 X188.495 Y99.01 E8.14651
G1 X188.499 Y99.408 E8.16505
G1 X188.5 Y99.519 E8.17021
G1 X188.5 Y104.664 E8.40979
G1 X188.499 Y104.824 E8.41724
G1 X188.489 Y105.512 E8.44928
G1 X188.48 Y105.811 E8.46321
G1 X188.472 Y105.998 E8.47192
G1 X188.396 Y108.684 E8.59704
G1 X188.396 Y111.19 E8.71373
G1 X188.446 Y113.201 E8.8074
G1 X188.489 Y114.394 E8.86299
G1 X188.495 Y114.679 E8.87626
G1 X188.499 Y115.073 E8.89461
G1 X188.5 Y115.185 E8.89983
G1 X188.5 Y120.33 E9.1394
G1 X188.499 Y120.49 E9.14685
G1 X188.489 Y121.178 E9.17889
G1 X188.48 Y121.477 E9.19282
G1 X188.472 Y121.664 E9.20153
G1 X188.396 Y124.35 E9.32665
G1 X188.396 Y126.856 E9.44334
G1 X188.446 Y128.865 E9.53692
G1 X188.489 Y130.057 E9.59246
G1 X188.495 Y130.343 E9.60578
G1 X188.499 Y130.741 E9.62432
G1 X188.5 Y130.852 E9.62948
G1 X188.5 Y135.966 E9.86761
G1 X188.499 Y136.117 E9.87465
G1 X188.489 Y136.846 E9.90859
G1 X188.436 Y137.782 E9.95225
G1 X188.304 Y138.711 E9.99594
G1 X188.093 Y139.625 E10.03962
G1 X187.805 Y140.517 E10.08327
G1 X187.442 Y141.382 E10.12695
G1 X187.006 Y142.213 E10.17064
G1 X186.502 Y143.003 E10.21428
G1 X185.931 Y143.748 E10.25799
G1 X185.3 Y144.442 E10.30166
G1 X185.177 Y144.566 E10.30979
G1 X184.488 Y145.203 E10.35349
G1 X183.748 Y145.779 E10.39715
G1 X182.962 Y146.29 E10.44081
G1 X182.135 Y146.732 E10.48447
G1 X181.273 Y147.102 E10.52815
G1 X180.517 Y147.358 E10.56532
G1 X180.073 Y147.491 E10.5869
G1 X177.566 Y148.279 E10.70927
G1 X175.207 Y149.095 E10.8255
G1 X172.823 Y149.996 E10.94417
G1 X170.529 Y150.938 E11.05964
G1 X168.195 Y151.974 E11.17855
G1 X167.737 Y152.191 E11.20215
G1 X167.557 Y152.274 E11.21138
G1 X167.025 Y152.514 E11.23855
G1 X166.155 Y152.863 E11.2822
G1 X165.258 Y153.136 E11.32586
G1 X164.341 Y153.332 E11.36953
G1 X163.41 Y153.449 E11.41322
G1 X162.932 Y153.479 E11.43552
G1 X162.6 Y153.492 E11.45099
G1 X162.17 Y153.5 E11.47102
G1 X43.207 Y153.5 E17.01043
G1 X43.065 Y153.499 E17.01705
G1 X42.367 Y153.49 E17.04955
G1 X41.431 Y153.438 E17.0932
G1 X40.502 Y153.306 E17.13689
G1 X39.588 Y153.096 E17.18056
G1 X38.695 Y152.809 E17.22424
G1 X37.83 Y152.446 E17.26792
G1 X36.999 Y152.012 E17.31157
G1 X36.208 Y151.508 E17.35525
G1 X35.463 Y150.938 E17.39893
G1 X34.769 Y150.307 E17.4426
G1 X34.132 Y149.62 E17.48623
G1 X33.555 Y148.88 E17.52992
G1 X33.043 Y148.094 E17.5736
G1 X32.6 Y147.267 E17.61729
G1 X32.229 Y146.406 E17.66094
G1 X31.933 Y145.516 E17.70462
G1 X31.714 Y144.604 E17.74829
G1 X31.573 Y143.677 E17.79195
G1 X31.513 Y142.788 E17.83344
G1 X31.504 Y142.455 E17.84895
G1 X31.5 Y142.158 E17.86278
G1 X31.5 Y78.198 E20.84103
G1 X31.501 Y78.054 E20.84773
G1 X31.51 Y77.365 E20.87982
G1 X31.562 Y76.429 E20.92347
G1 X31.694 Y75.5 E20.96716
G1 X31.904 Y74.586 E21.01083
G1 X32.192 Y73.694 E21.05448
G1 X32.554 Y72.829 E21.09814
G1 X32.989 Y71.998 E21.14182
G1 X33.493 Y71.207 E21.18549
G1 X34.063 Y70.462 E21.22917
G1 X34.694 Y69.768 E21.27285
G1 X35.382 Y69.13 E21.31654
G1 X36.121 Y68.554 E21.36017
G1 X36.907 Y68.042 E21.40385
G0 F6000 X37.287 Y68.285
G1 F1200 X38.107 Y67.866 E21.44672
G1 X38.96 Y67.521 E21.48957
G1 X39.84 Y67.25 E21.53244
G1 X40.74 Y67.058 E21.5753
G1 X41.654 Y66.944 E21.61819
G1 X42.212 Y66.913 E21.64421
G1 X42.533 Y66.904 E21.65916
G1 X42.83 Y66.9 E21.67299
G1 X161.793 Y66.9 E27.21241
G1 X161.945 Y66.901 E27.21949
G1 X162.643 Y66.911 E27.25199
G1 X163.562 Y66.964 E27.29485
G1 X164.473 Y67.097 E27.33772
G1 X165.369 Y67.308 E27.38059
G1 X166.243 Y67.596 E27.42344
G1 X166.868 Y67.856 E27.45496
G1 X169.73 Y69.154 E27.60129
G1 X172.071 Y70.133 E27.71944
G1 X174.453 Y71.053 E27.83834
G1 X176.814 Y71.885 E27.95491
G1 X179.281 Y72.678 E28.07557
G1 X180.451 Y73.036 E28.13255
G1 X181.319 Y73.343 E28.17542
G1 X182.157 Y73.724 E28.21828
G1 X182.958 Y74.177 E28.26113
G1 X183.718 Y74.697 E28.30401
G1 X184.373 Y75.231 E28.34336
G1 X184.511 Y75.353 E28.35194
G1 X185.173 Y75.993 E28.39481
G1 X185.778 Y76.687 E28.43768
G1 X186.32 Y77.431 E28.48055
G1 X186.796 Y78.219 E28.52341
G1 X187.201 Y79.046 E28.56629
G1 X187.533 Y79.905 E28.60917
G1 X187.789 Y80.789 E28.65203
G1 X187.968 Y81.692 E28.69489
G1 X188.068 Y82.607 E28.73775
G1 X188.088 Y83.096 E28.76054
G1 X188.098 Y83.629 E28.78537
G1 X188.1 Y83.828 E28.79463
G1 X188.1 Y88.997 E29.03532
G1 X188.099 Y89.151 E29.04249
G1 X188.089 Y89.839 E29.07453
G1 X188.081 Y90.128 E29.088
G1 X188.07 Y90.392 E29.1003
G1 X187.996 Y93.006 E29.22207
G1 X187.996 Y95.533 E29.33973
G1 X188.046 Y97.558 E29.43406
G1 X188.089 Y98.739 E29.48908
G1 X188.095 Y99.014 E29.50189
G1 X188.099 Y99.412 E29.52043
G1 X188.1 Y99.519 E29.52541
G1 X188.1 Y104.664 E29.76498
G1 X188.099 Y104.818 E29.77215
G1 X188.089 Y105.506 E29.80419
G1 X188.081 Y105.795 E29.81765
G1 X188.07 Y106.059 E29.82996
G1 X187.996 Y108.673 E29.95173
G1 X187.996 Y111.2 E30.06939
G1 X188.046 Y113.227 E30.16381
G1 X188.089 Y114.409 E30.21888
G1 X188.095 Y114.683 E30.23164
G1 X188.099 Y115.077 E30.24999
G1 X188.1 Y115.185 E30.25502
G1 X188.1 Y120.33 E30.49459
G1 X188.099 Y120.484 E30.50176
G1 X188.089 Y121.172 E30.5338
G1 X188.081 Y121.461 E30.54727
G1 X188.07 Y121.725 E30.55957
G1 X187.996 Y124.339 E30.68134
G1 X187.996 Y126.866 E30.79901
G1 X188.046 Y128.891 E30.89333
G1 X188.089 Y130.072 E30.94836
G1 X188.095 Y130.347 E30.96116
G1 X188.099 Y130.745 E30.9797
G1 X188.1 Y130.852 E30.98468
G1 X188.1 Y135.966 E31.22281
G1 X188.099 Y136.111 E31.22956
G1 X188.089 Y136.84 E31.26351
G1 X188.036 Y137.76 E31.30642
G1 X187.904 Y138.671 E31.34928
G1 X187.694 Y139.567 E31.39213
G1 X187.406 Y140.441 E31.43498
G1 X187.043 Y141.288 E31.47789
G1 X186.609 Y142.099 E31.52072
G1 X186.105 Y142.87 E31.56362
G1 X185.537 Y143.595 E31.6065
G1 X185.016 Y144.16 E31.64229
G1 X184.893 Y144.284 E31.65042
G1 X184.216 Y144.909 E31.69332
G1 X183.489 Y145.473 E31.73617
G1 X182.715 Y145.971 E31.77903
G1 X181.9 Y146.401 E31.82193
G1 X181.052 Y146.758 E31.86478
G1 X180.403 Y146.975 E31.89664
G1 X179.902 Y147.125 E31.92099
G1 X177.452 Y147.895 E32.04058
G1 X175.083 Y148.715 E32.15731
G1 X172.666 Y149.628 E32.27762
G1 X170.373 Y150.57 E32.39305
G1 X168.005 Y151.621 E32.51368
G1 X167.566 Y151.829 E32.5363
G1 X167.393 Y151.909 E32.54518
G1 X166.861 Y152.149 E32.57235
G1 X166.006 Y152.491 E32.61523
G1 X165.125 Y152.757 E32.65809
G1 X164.224 Y152.946 E32.70095
G1 X162.917 Y153.079 E32.76213
G1 X162.585 Y153.092 E32.7776
G1 X162.17 Y153.1 E32.79693
G1 X43.207 Y153.1 E38.33634
G1 X43.07 Y153.099 E38.34272
G1 X42.372 Y153.09 E38.37523
G1 X41.453 Y153.038 E38.41809
G1 X40.542 Y152.907 E38.46094
G1 X39.646 Y152.697 E38.50379
G1 X38.771 Y152.41 E38.54667
G1 X37.924 Y152.048 E38.58957
G1 X37.112 Y151.614 E38.63244
G1 X36.341 Y151.112 E38.67528
G1 X35.616 Y150.544 E38.71816
G1 X34.943 Y149.915 E38.76106
G1 X34.328 Y149.231 E38.80389
G1 X33.774 Y148.496 E38.84675
G1 X33.286 Y147.715 E38.88963
G1 X32.867 Y146.895 E38.93251
G1 X32.521 Y146.042 E38.97537
G1 X32.251 Y145.162 E39.01823
G1 X32.058 Y144.261 E39.06114
G1 X31.944 Y143.348 E39.10398
G1 X31.913 Y142.777 E39.13061
G1 X31.904 Y142.444 E39.14612
G1 X31.9 Y142.158 E39.15944
G1 X31.9 Y78.198 E42.13768
G1 X31.901 Y78.06 E42.14411
G1 X31.91 Y77.371 E42.17619
G1 X31.962 Y76.451 E42.2191
G1 X32.093 Y75.54 E42.26196
G1 X32.304 Y74.644 E42.30482
G1 X32.591 Y73.769 E42.3477
G1 X32.953 Y72.923 E42.39055
G1 X33.387 Y72.111 E42.43342
G1 X33.889 Y71.339 E42.4763
G1 X34.457 Y70.615 E42.51915
G1 X35.086 Y69.942 E42.56204
G1 X35.771 Y69.327 E42.60491
G1 X36.506 Y68.773 E42.64777
G1 X37.287 Y68.285 E42.69065
G0 F6000 X37.664 Y68.533
G1 F1200 X38.477 Y68.14 E42.7327
G1 X39.322 Y67.82 E42.77477
G1 X40.192 Y67.576 E42.81684
G1 X41.079 Y67.41 E42.85886
G1 X42.223 Y67.313 E42.91232
G1 X42.544 Y67.304 E42.92728
G1 X42.83 Y67.3 E42.9406
G1 X161.793 Y67.3 E48.48001
G1 X161.939 Y67.301 E48.48681
G1 X162.637 Y67.311 E48.51931
G1 X163.539 Y67.364 E48.56139
G1 X164.432 Y67.496 E48.60342
G1 X165.31 Y67.707 E48.64547
G1 X166.166 Y67.995 E48.68752
G1 X166.703 Y68.22 E48.71463
G1 X169.589 Y69.528 E48.86218
G1 X171.908 Y70.498 E48.97923
G1 X174.312 Y71.427 E49.09923
G1 X176.696 Y72.267 E49.21693
G1 X179.189 Y73.069 E49.33887
G1 X180.334 Y73.419 E49.39463
G1 X181.185 Y73.721 E49.43667
G1 X182.006 Y74.097 E49.47872
G1 X182.791 Y74.544 E49.52078
G1 X183.533 Y75.059 E49.56284
G1 X184.108 Y75.531 E49.59748
G1 X184.246 Y75.653 E49.60606
G1 X184.895 Y76.281 E49.64811
G1 X185.487 Y76.963 E49.69016
G1 X186.015 Y77.695 E49.73219
G1 X186.477 Y78.471 E49.77424
G1 X186.869 Y79.285 E49.81631
G1 X187.187 Y80.131 E49.8584
G1 X187.429 Y81.001 E49.90045
G1 X187.593 Y81.889 E49.94249
G1 X187.688 Y83.104 E49.99924
G1 X187.698 Y83.637 E50.02406
G1 X187.7 Y83.828 E50.03296
G1 X187.7 Y88.997 E50.27365
G1 X187.699 Y89.145 E50.28054
G1 X187.689 Y89.833 E50.31258
G1 X187.681 Y90.111 E50.32553
G1 X187.67 Y90.363 E50.33728
G1 X187.596 Y92.995 E50.45988
G1 X187.596 Y95.542 E50.57848
G1 X187.647 Y97.583 E50.67355
G1 X187.689 Y98.753 E50.72806
G1 X187.695 Y99.018 E50.74041
G1 X187.699 Y99.416 E50.75894
G1 X187.7 Y99.519 E50.76374
G1 X187.7 Y104.664 E51.00331
G1 X187.699 Y104.812 E51.0102
G1 X187.689 Y105.5 E51.04224
G1 X187.681 Y105.778 E51.05519
G1 X187.67 Y106.03 E51.06693
G1 X187.596 Y108.662 E51.18954
G1 X187.596 Y111.21 E51.30819
G1 X187.647 Y113.25 E51.40321
G1 X187.689 Y114.423 E51.45786
G1 X187.695 Y114.687 E51.47016
G1 X187.699 Y115.081 E51.4885
G1 X187.7 Y115.185 E51.49335
G1 X187.7 Y120.33 E51.73292
G1 X187.699 Y120.478 E51.73981
G1 X187.689 Y121.166 E51.77185
G1 X187.681 Y121.444 E51.7848
G1 X187.67 Y121.696 E51.79655
G1 X187.596 Y124.328 E51.91915
G1 X187.596 Y126.875 E52.03775
G1 X187.647 Y128.916 E52.13282
G1 X187.689 Y130.086 E52.18733
G1 X187.695 Y130.351 E52.19968
G1 X187.699 Y130.749 E52.21821
G1 X187.7 Y130.852 E52.22301
G1 X187.7 Y135.966 E52.46114
G1 X187.699 Y136.106 E52.46765
G1 X187.689 Y136.835 E52.5016
G1 X187.637 Y137.736 E52.54363
G1 X187.505 Y138.63 E52.58571
G1 X187.294 Y139.508 E52.62775
G1 X187.007 Y140.364 E52.66979
G1 X186.645 Y141.192 E52.71187
G1 X186.212 Y141.984 E52.7539
G1 X185.71 Y142.735 E52.79597
G1 X185.143 Y143.438 E52.83802
G1 X184.732 Y143.878 E52.86606
G1 X184.609 Y144.002 E52.87419
G1 X183.945 Y144.615 E52.91627
G1 X183.23 Y145.166 E52.9583
G1 X182.468 Y145.652 E53.00039
G1 X181.667 Y146.068 E53.04241
G1 X180.832 Y146.412 E53.08447
G1 X180.288 Y146.592 E53.11115
G1 X179.815 Y146.733 E53.13413
G1 X177.317 Y147.518 E53.25606
G1 X174.936 Y148.342 E53.37338
G1 X172.521 Y149.255 E53.4936
G1 X170.208 Y150.205 E53.61003
G1 X167.869 Y151.244 E53.72921
G1 X167.395 Y151.468 E53.75362
G1 X167.228 Y151.545 E53.76218
G1 X166.696 Y151.785 E53.78936
G1 X165.858 Y152.119 E53.83136
G1 X164.992 Y152.378 E53.87345
G1 X164.108 Y152.56 E53.91548
G1 X162.901 Y152.679 E53.97195
G1 X162.569 Y152.692 E53.98743
G1 X162.17 Y152.7 E54.00601
G1 X43.207 Y152.7 E59.54542
G1 X43.075 Y152.699 E59.55157
G1 X42.377 Y152.69 E59.58407
G1 X41.476 Y152.639 E59.6261
G1 X40.582 Y152.507 E59.66818
G1 X39.704 Y152.298 E59.7102
G1 X38.847 Y152.011 E59.75229
G1 X38.02 Y151.65 E59.7943
G1 X37.227 Y151.217 E59.83637
G1 X36.476 Y150.716 E59.87841
G1 X35.772 Y150.15 E59.92047
G1 X35.121 Y149.524 E59.96253
G1 X34.528 Y148.843 E60.00458
G1 X33.998 Y148.112 E60.04662
G1 X33.534 Y147.337 E60.08868
G1 X33.14 Y146.524 E60.13075
G1 X32.82 Y145.68 E60.17278
G1 X32.576 Y144.81 E60.21485
G1 X32.41 Y143.922 E60.25692
G1 X32.313 Y142.767 E60.31089
G1 X32.304 Y142.434 E60.3264
G1 X32.3 Y142.158 E60.33925
G1 X32.3 Y78.198 E63.3175
G1 X32.301 Y78.065 E63.32369
G1 X32.31 Y77.376 E63.35578
G1 X32.362 Y76.474 E63.39785
G1 X32.493 Y75.581 E63.43987
G1 X32.703 Y74.702 E63.48196
G1 X32.989 Y73.846 E63.52398
G1 X33.351 Y73.018 E63.56606
G1 X33.784 Y72.226 E63.60809
G1 X34.285 Y71.475 E63.65013
G1 X34.851 Y70.771 E63.69219
G1 X35.477 Y70.12 E63.73424
G1 X36.159 Y69.527 E63.77633
G1 X36.89 Y68.997 E63.81837
G1 X37.664 Y68.533 E63.86039
G1 F1500 E57.36039
G0 F6000 X162.657 Y76.839
G0 X168.161 Y82.343
G0 X168.153 Y82.52
G0 X168.5 Y83.373
;TYPE:SUPPORT-INTERFACE
G1 F1500 E63.86039
G1 F1200 X177.3 Y83.373 E64.27016
G1 X177.3 Y84.455 E64.32054
G1 X168.5 Y84.454 E64.7303
G1 X168.5 Y83.373 E64.78064
G1 F1500 E58.28064
G0 F6000 X168.5 Y82.508
G0 X177.657 Y82.512
G0 X178.161 Y83.016
G0 X178.161 Y89.978
G0 X177.652 Y90.487
G0 X168.501 Y90.491
G0 X168.5 Y88.544
G1 F1500 E64.78064
G1 F1200 X177.3 Y88.535 E65.1904
G1 X177.3 Y89.622 E65.24102
G1 X177.296 Y89.626 E65.24128
G1 X168.5 Y89.627 E65.65086
G1 X168.5 Y88.544 E65.70129
G1 F1500 E59.20129
G0 F6000 X168.501 Y90.491
G0 X168.5 Y98.175
G0 X168.5 Y99.04
G1 F1500 E65.70129
G1 F1200 X177.3 Y99.04 E66.11105
G1 X177.3 Y100.121 E66.16139
G1 X168.5 Y100.12 E66.57116
G1 X168.5 Y99.04 E66.62144
G1 F1500 E60.12144
G0 F6000 X168.5 Y98.175
G0 X177.657 Y98.179
G0 X178.161 Y98.683
G0 X178.161 Y105.645
G0 X177.652 Y106.154
G0 X168.501 Y106.158
G0 X168.5 Y104.211
G1 F1500 E66.62144
G1 F1200 X177.3 Y104.2 E67.03121
G1 X177.3 Y105.289 E67.08192
G1 X177.296 Y105.293 E67.08218
G1 X168.5 Y105.294 E67.49176
G1 X168.5 Y104.211 E67.54219
G1 F1500 E61.04219
G0 F6000 X168.501 Y106.158
G0 X168.5 Y113.841
G0 X168.5 Y114.706
G1 F1500 E67.54219
G1 F1200 X177.3 Y114.706 E67.95195
G1 X177.3 Y115.788 E68.00234
G1 X168.5 Y115.787 E68.4121
G1 X168.5 Y114.706 E68.46244
G1 F1500 E61.96244
G0 F6000 X168.5 Y113.841
G0 X177.657 Y113.845
G0 X178.161 Y114.349
G0 X178.161 Y121.311
G0 X177.652 Y121.82
G0 X168.501 Y121.824
G0 X168.5 Y119.878
G1 F1500 E68.46244
G1 F1200 X177.3 Y119.867 E68.8722
G1 X177.3 Y120.955 E68.92286
G1 X177.296 Y120.959 E68.92313
G1 X168.5 Y120.96 E69.33271
G1 X168.5 Y119.878 E69.38309
G1 F1500 E62.88309
G0 F6000 X168.501 Y121.824
G0 X168.5 Y129.508
G0 X168.5 Y130.373
G1 F1500 E69.38309
G1 F1200 X177.3 Y130.373 E69.79285
