;FLAVOR:Marlin
;TIME:8835
;Filament used: 5.23082m
;Layer height: 0.28
;MINX:59
;MINY:59
;MINZ:0.28
;MAXX:161
;MAXY:161
;MAXZ:12.88
;Generated with Cura_SteamEngine 4.4.1
M140 S60
M105
M190 S60
M104 S200
M105
M109 S200
M82 ;absolute extrusion mode
M201 X500.00 Y500.00 Z100.00 E5000.00 ;Setup machine max acceleration
M203 X500.00 Y500.00 Z10.00 E50.00 ;Setup machine max feedrate
M204 P500.00 R1000.00 T500.00 ;Setup Print/Retract/Travel acceleration
M205 X8.00 Y8.00 Z0.40 E5.00 ;Setup Jerk
M220 S100 ;Reset Feedrate
M221 S100 ;Reset Flowrate

G28 ;Home

G92 E0 ;Reset Extruder
G1 Z2.0 F3000 ;Move Z Axis up
G1 X10.1 Y20 Z0.28 F5000.0 ;Move to start position
G1 X10.1 Y200.0 Z0.28 F1500.0 E15 ;Draw the first line
G1 X10.4 Y200.0 Z0.28 F5000.0 ;Move to side a little
G1 X10.4 Y20 Z0.28 F1500.0 E30 ;Draw the second line
G92 E0 ;Reset Extruder
G1 Z2.0 F3000 ;Move Z Axis up

G92 E0
G92 E0
G1 F1500 E-6.5
;LAYER_COUNT:46
;LAYER:0
M107
G0 F6000 X62.198 Y62.264 Z0.28
;TYPE:SKIRT
G1 F1500 E0
G1 F1200 X62.886 Y61.627 E0.04366
G1 X63.626 Y61.051 E0.08732
G1 X64.412 Y60.539 E0.131
G1 X65.239 Y60.097 E0.17467
G1 X66.101 Y59.727 E0.21835
G1 X66.991 Y59.431 E0.26202
G1 X67.903 Y59.213 E0.30568
G1 X68.83 Y59.072 E0.34935
G1 X69.701 Y59.013 E0.39
G1 X70.022 Y59.004 E0.40495
G1 X70.33 Y59 E0.41929
G1 X149.293 Y59 E4.09614
G1 X149.451 Y59.001 E4.1035
G1 X150.149 Y59.011 E4.136
G1 X151.085 Y59.065 E4.17966
G1 X152.013 Y59.197 E4.22331
G1 X152.927 Y59.409 E4.267
G1 X153.819 Y59.698 E4.31066
G1 X154.684 Y60.061 E4.35434
G1 X155.514 Y60.497 E4.39799
G1 X156.305 Y61.002 E4.44169
G1 X157.049 Y61.573 E4.48536
G1 X157.742 Y62.205 E4.52904
G1 X158.379 Y62.893 E4.57269
G1 X158.954 Y63.634 E4.61637
G1 X159.465 Y64.42 E4.66002
G1 X159.907 Y65.248 E4.70373
G1 X160.276 Y66.11 E4.74739
G1 X160.571 Y67 E4.79105
G1 X160.789 Y67.912 E4.83471
G1 X160.929 Y68.84 E4.87841
G1 X160.987 Y69.701 E4.91859
G1 X160.996 Y70.021 E4.9335
G1 X161 Y70.33 E4.94789
G1 X161 Y149.264 E8.62339
G1 X160.999 Y149.4 E8.62972
G1 X160.99 Y150.127 E8.66358
G1 X160.939 Y151.064 E8.70727
G1 X160.807 Y151.992 E8.75092
G1 X160.598 Y152.906 E8.79458
G1 X160.311 Y153.799 E8.83825
G1 X159.949 Y154.665 E8.88196
G1 X159.515 Y155.496 E8.92561
G1 X159.011 Y156.287 E8.96929
G1 X158.442 Y157.032 E9.01294
G1 X157.811 Y157.727 E9.05665
G1 X157.124 Y158.365 E9.1003
G1 X156.385 Y158.942 E9.14396
G1 X155.599 Y159.454 E9.18764
G1 X154.773 Y159.897 E9.23128
G1 X153.911 Y160.269 E9.275
G1 X153.022 Y160.565 E9.31863
G1 X152.11 Y160.785 E9.36232
G1 X151.183 Y160.926 E9.40598
G1 X150.299 Y160.987 E9.44724
G1 X149.978 Y160.996 E9.46219
G1 X149.67 Y161 E9.47653
G1 X70.707 Y161 E13.15338
G1 X70.565 Y160.999 E13.15999
G1 X69.867 Y160.99 E13.1925
G1 X68.931 Y160.938 E13.23615
G1 X68.002 Y160.806 E13.27984
G1 X67.088 Y160.596 E13.32351
G1 X66.195 Y160.309 E13.36719
G1 X65.33 Y159.946 E13.41087
G1 X64.499 Y159.512 E13.45452
G1 X63.708 Y159.008 E13.4982
G1 X62.963 Y158.438 E13.54188
G1 X62.269 Y157.807 E13.58555
G1 X61.632 Y157.12 E13.62918
G1 X61.055 Y156.38 E13.67287
G1 X60.543 Y155.594 E13.71655
G1 X60.1 Y154.767 E13.76024
G1 X59.729 Y153.906 E13.80389
G1 X59.433 Y153.016 E13.84757
G1 X59.214 Y152.104 E13.89124
G1 X59.073 Y151.177 E13.9349
G1 X59.013 Y150.288 E13.97639
G1 X59.004 Y149.955 E13.9919
G1 X59 Y149.658 E14.00573
G1 X59 Y70.674 E17.68356
G1 X59.001 Y70.525 E17.6905
G1 X59.01 Y69.86 E17.72146
G1 X59.063 Y68.924 E17.76512
G1 X59.195 Y67.995 E17.80881
G1 X59.406 Y67.081 E17.85249
G1 X59.694 Y66.189 E17.89614
G1 X60.057 Y65.324 E17.93982
G1 X60.492 Y64.493 E17.98349
G1 X60.996 Y63.703 E18.02713
G1 X61.566 Y62.958 E18.07081
G1 X62.198 Y62.264 E18.11451
G0 F6000 X62.589 Y62.439
G1 F1200 X63.274 Y61.823 E18.15741
G1 X64.01 Y61.27 E18.20028
G1 X64.791 Y60.782 E18.24316
G1 X65.611 Y60.364 E18.28602
G1 X66.465 Y60.019 E18.32891
G1 X67.345 Y59.749 E18.37177
G1 X68.245 Y59.557 E18.41462
G1 X69.159 Y59.443 E18.45751
G1 X69.712 Y59.413 E18.4833
G1 X70.033 Y59.404 E18.49825
G1 X70.33 Y59.4 E18.51208
G1 X149.293 Y59.4 E22.18893
G1 X149.445 Y59.401 E22.19601
G1 X150.143 Y59.411 E22.22851
G1 X151.062 Y59.464 E22.27137
G1 X151.973 Y59.597 E22.31424
G1 X152.869 Y59.808 E22.35711
G1 X153.743 Y60.096 E22.39996
G1 X154.59 Y60.459 E22.44287
G1 X155.401 Y60.894 E22.48572
G1 X156.171 Y61.398 E22.52857
G1 X156.895 Y61.967 E22.57145
G1 X157.567 Y62.597 E22.61434
G1 X158.182 Y63.282 E22.65721
G1 X158.735 Y64.018 E22.70007
G1 X159.222 Y64.799 E22.74293
G1 X159.639 Y65.62 E22.78581
G1 X159.984 Y66.474 E22.8287
G1 X160.253 Y67.354 E22.87154
G1 X160.445 Y68.255 E22.91444
G1 X160.558 Y69.168 E22.95728
G1 X160.587 Y69.712 E22.98265
G1 X160.596 Y70.032 E22.99755
G1 X160.6 Y70.33 E23.01143
G1 X160.6 Y149.264 E26.68693
G1 X160.599 Y149.395 E26.69303
G1 X160.59 Y150.122 E26.72688
G1 X160.539 Y151.041 E26.76974
G1 X160.408 Y151.953 E26.81264
G1 X160.198 Y152.849 E26.85549
G1 X159.912 Y153.724 E26.89836
G1 X159.551 Y154.571 E26.94123
G1 X159.117 Y155.383 E26.9841
G1 X158.615 Y156.155 E27.02698
G1 X158.047 Y156.88 E27.06987
G1 X157.419 Y157.553 E27.11273
G1 X156.735 Y158.169 E27.15559
G1 X156 Y158.723 E27.19845
G1 X155.22 Y159.212 E27.24132
G1 X154.4 Y159.631 E27.2842
G1 X153.547 Y159.977 E27.32706
G1 X152.667 Y160.248 E27.36994
G1 X151.767 Y160.441 E27.4128
G1 X150.853 Y160.556 E27.45569
G1 X150.288 Y160.587 E27.48204
G1 X149.967 Y160.596 E27.49699
G1 X149.67 Y160.6 E27.51082
G1 X70.707 Y160.6 E31.18767
G1 X70.57 Y160.599 E31.19405
G1 X69.872 Y160.59 E31.22655
G1 X68.953 Y160.538 E31.26942
G1 X68.042 Y160.407 E31.31227
G1 X67.146 Y160.197 E31.35512
G1 X66.271 Y159.91 E31.398
G1 X65.424 Y159.548 E31.44089
G1 X64.612 Y159.114 E31.48377
G1 X63.841 Y158.612 E31.52661
G1 X63.116 Y158.044 E31.56949
G1 X62.443 Y157.415 E31.61239
G1 X61.828 Y156.731 E31.65522
G1 X61.274 Y155.996 E31.69808
G1 X60.786 Y155.215 E31.74096
G1 X60.367 Y154.395 E31.78384
G1 X60.021 Y153.542 E31.8267
G1 X59.751 Y152.662 E31.86956
G1 X59.558 Y151.761 E31.91247
G1 X59.444 Y150.848 E31.95531
G1 X59.413 Y150.277 E31.98194
G1 X59.404 Y149.944 E31.99745
G1 X59.4 Y149.658 E32.01077
G1 X59.4 Y70.674 E35.68859
G1 X59.401 Y70.531 E35.69525
G1 X59.41 Y69.866 E35.72622
G1 X59.462 Y68.946 E35.76913
G1 X59.594 Y68.035 E35.81199
G1 X59.805 Y67.139 E35.85485
G1 X60.092 Y66.264 E35.89773
G1 X60.455 Y65.418 E35.9406
G1 X60.889 Y64.606 E35.98347
G1 X61.392 Y63.835 E36.02634
G1 X61.961 Y63.111 E36.06921
G1 X62.589 Y62.439 E36.11204
G0 F6000 X62.981 Y62.617
G1 F1200 X63.662 Y62.024 E36.15409
G1 X64.394 Y61.494 E36.19617
G1 X65.169 Y61.031 E36.23821
G1 X65.982 Y60.638 E36.28026
G1 X66.827 Y60.318 E36.32233
G1 X67.696 Y60.075 E36.36435
G1 X68.584 Y59.909 E36.40641
G1 X69.723 Y59.813 E36.45964
G1 X70.044 Y59.804 E36.47459
G1 X70.33 Y59.8 E36.48791
G1 X149.293 Y59.8 E40.16476
G1 X149.439 Y59.801 E40.17155
G1 X150.137 Y59.811 E40.20406
G1 X151.039 Y59.864 E40.24613
G1 X151.932 Y59.996 E40.28817
G1 X152.81 Y60.207 E40.33021
G1 X153.666 Y60.495 E40.37227
G1 X154.493 Y60.857 E40.4143
G1 X155.285 Y61.292 E40.45638
G1 X156.036 Y61.794 E40.49844
G1 X156.739 Y62.361 E40.5405
G1 X157.389 Y62.988 E40.58255
G1 X157.981 Y63.67 E40.6246
G1 X158.511 Y64.401 E40.66665
G1 X158.973 Y65.177 E40.7087
G1 X159.366 Y65.99 E40.75075
G1 X159.684 Y66.835 E40.79279
G1 X159.927 Y67.705 E40.83485
G1 X160.092 Y68.593 E40.87691
G1 X160.187 Y69.723 E40.92971
G1 X160.196 Y70.043 E40.94462
G1 X160.2 Y70.33 E40.95798
G1 X160.2 Y149.264 E44.63348
G1 X160.199 Y149.39 E44.63935
G1 X160.19 Y150.117 E44.6732
G1 X160.139 Y151.019 E44.71527
G1 X160.008 Y151.913 E44.75734
G1 X159.799 Y152.791 E44.79937
G1 X159.513 Y153.648 E44.84144
G1 X159.152 Y154.476 E44.8835
G1 X158.72 Y155.268 E44.9255
G1 X158.219 Y156.02 E44.96758
G1 X157.653 Y156.724 E45.00964
G1 X157.028 Y157.375 E45.05166
G1 X156.347 Y157.969 E45.09374
G1 X155.616 Y158.5 E45.13581
G1 X154.842 Y158.964 E45.17783
G1 X154.029 Y159.358 E45.2199
G1 X153.185 Y159.678 E45.26193
G1 X152.315 Y159.923 E45.30402
G1 X151.428 Y160.089 E45.34604
G1 X150.277 Y160.187 E45.39983
G1 X149.956 Y160.196 E45.41478
G1 X149.67 Y160.2 E45.4281
G1 X70.707 Y160.2 E49.10495
G1 X70.575 Y160.199 E49.11109
G1 X69.877 Y160.19 E49.1436
G1 X68.976 Y160.139 E49.18562
G1 X68.082 Y160.007 E49.2277
G1 X67.204 Y159.798 E49.26973
G1 X66.347 Y159.511 E49.31181
G1 X65.52 Y159.15 E49.35383
G1 X64.727 Y158.717 E49.3959
G1 X63.976 Y158.216 E49.43793
G1 X63.272 Y157.65 E49.48
G1 X62.621 Y157.024 E49.52205
G1 X62.028 Y156.343 E49.5641
G1 X61.498 Y155.612 E49.60614
G1 X61.034 Y154.837 E49.6482
G1 X60.64 Y154.024 E49.69027
G1 X60.32 Y153.18 E49.7323
G1 X60.076 Y152.31 E49.77438
G1 X59.91 Y151.422 E49.81644
G1 X59.813 Y150.267 E49.87041
G1 X59.804 Y149.934 E49.88592
G1 X59.8 Y149.658 E49.89878
G1 X59.8 Y70.674 E53.5766
G1 X59.801 Y70.536 E53.58303
G1 X59.81 Y69.871 E53.614
G1 X59.862 Y68.969 E53.65607
G1 X59.994 Y68.076 E53.6981
G1 X60.204 Y67.198 E53.74014
G1 X60.491 Y66.341 E53.78222
G1 X60.853 Y65.514 E53.82426
G1 X61.286 Y64.722 E53.86629
G1 X61.788 Y63.971 E53.90835
G1 X62.355 Y63.267 E53.95044
G1 X62.981 Y62.617 E53.99246
G1 F1500 E47.49246
;MESH:Sensor Board.stl(1)
G0 F6000 X69.339 Y150.157
G0 X69.843 Y150.661
G0 X121.186 Y150.665
G0 X121.186 Y140.739
G0 X121.419 Y141.043
;TYPE:WALL-OUTER
G1 F1500 E53.99246
G1 F1200 X121.371 Y141.07 E53.99503
G1 X121.356 Y141.071 E53.99573
G1 X121.308 Y141.061 E53.99801
G1 X121.278 Y141.038 E53.99977
G1 X121.259 Y141.004 E54.00158
G1 X121.251 Y140.962 E54.00357
G1 X121.263 Y140.923 E54.00547
G1 X121.294 Y140.885 E54.00776
G1 X121.307 Y140.878 E54.00845
G1 X121.351 Y140.866 E54.01057
G1 X121.372 Y140.869 E54.01156
G1 X121.427 Y140.905 E54.01462
G1 X121.447 Y140.947 E54.01678
G1 X121.447 Y140.989 E54.01874
G1 X121.419 Y141.043 E54.02157
G0 F6000 X121.433 Y141.034
G1 F1500 E47.52157
G0 F6000 X121.63 Y140.968
G0 X123.57 Y140.97
G0 X123.919 Y141.043
G1 F1500 E54.02157
G1 F1200 X123.871 Y141.07 E54.02414
G1 X123.832 Y141.07 E54.02595
G1 X123.793 Y141.054 E54.02792
G1 X123.759 Y141.011 E54.03047
G1 X123.751 Y140.967 E54.03255
G1 X123.759 Y140.93 E54.03431
G1 X123.779 Y140.899 E54.03603
G1 X123.798 Y140.882 E54.03722
G1 X123.851 Y140.866 E54.0398
G1 X123.87 Y140.868 E54.04069
G1 X123.906 Y140.884 E54.04252
G1 X123.929 Y140.908 E54.04407
G1 X123.947 Y140.946 E54.04603
G1 X123.947 Y140.989 E54.04803
G1 X123.919 Y141.043 E54.05086
G0 F6000 X123.946 Y141.011
G1 F1500 E47.55086
G0 F6000 X124.08 Y140.807
G0 X139.887 Y129.367
G0 X140.073 Y129.181
G1 F1500 E54.05086
G1 F1200 X140.073 Y129.073 E54.05589
G1 X140.181 Y129.073 E54.06092
G1 X140.181 Y129.181 E54.06595
G1 X140.073 Y129.181 E54.07098
G0 F6000 X140.073 Y129.273
G1 F1500 E47.57098
G0 F6000 X140.361 Y129.181
G0 X141.893 Y129.181
G0 X142.073 Y129.181
G1 F1500 E54.07098
G1 F1200 X142.073 Y129.073 E54.076
G1 X142.181 Y129.073 E54.08103
G1 X142.181 Y129.181 E54.08606
G1 X142.073 Y129.181 E54.09109
G0 F6000 X142.073 Y129.273
G1 F1500 E47.59109
G0 F6000 X142.073 Y128.893
G0 X142.073 Y127.361
G0 X142.073 Y127.181
G1 F1500 E54.09109
G1 F1200 X142.073 Y127.073 E54.09612
G1 X142.181 Y127.073 E54.10115
G1 X142.181 Y127.181 E54.10618
G1 X142.073 Y127.181 E54.11121
G0 F6000 X142.073 Y127.273
G1 F1500 E47.61121
G0 F6000 X141.893 Y127.181
G0 X140.361 Y127.181
G0 X140.073 Y127.181
G1 F1500 E54.11121
G1 F1200 X140.073 Y127.073 E54.11624
G1 X140.181 Y127.073 E54.12127
G1 X140.181 Y127.181 E54.12629
G1 X140.073 Y127.181 E54.13132
G0 F6000 X140.073 Y127.273
G1 F1500 E47.63132
G0 F6000 X140.073 Y126.893
G0 X140.073 Y125.361
G0 X140.073 Y125.181
G1 F1500 E54.13132
G1 F1200 X140.073 Y125.073 E54.13635
G1 X140.181 Y125.073 E54.14138
G1 X140.181 Y125.181 E54.14641
G1 X140.073 Y125.181 E54.15144
G0 F6000 X140.073 Y125.273
G1 F1500 E47.65144
G0 F6000 X140.361 Y125.181
G0 X141.893 Y125.181
G0 X142.073 Y125.181
G1 F1500 E54.15144
G1 F1200 X142.073 Y125.073 E54.15647
G1 X142.181 Y125.073 E54.1615
G1 X142.181 Y125.181 E54.16653
G1 X142.073 Y125.181 E54.17155
G0 F6000 X142.073 Y125.273
G1 F1500 E47.67155
G0 F6000 X142.073 Y124.893
G0 X142.073 Y123.361
G0 X142.073 Y123.181
G1 F1500 E54.17155
G1 F1200 X142.073 Y123.073 E54.17658
G1 X142.181 Y123.073 E54.18161
G1 X142.181 Y123.181 E54.18664
G1 X142.073 Y123.181 E54.19167
G0 F6000 X142.073 Y123.273
G1 F1500 E47.69167
G0 F6000 X141.893 Y123.181
G0 X140.361 Y123.181
G0 X140.073 Y123.181
G1 F1500 E54.19167
G1 F1200 X140.073 Y123.073 E54.1967
G1 X140.181 Y123.073 E54.20173
G1 X140.181 Y123.181 E54.20676
G1 X140.073 Y123.181 E54.21179
G0 F6000 X140.073 Y123.273
G1 F1500 E47.71179
G0 F6000 X140.073 Y122.893
G0 X140.073 Y121.361
G0 X140.073 Y121.181
G1 F1500 E54.21179
G1 F1200 X140.073 Y121.073 E54.21681
G1 X140.181 Y121.073 E54.22184
G1 X140.181 Y121.181 E54.22687
G1 X140.073 Y121.181 E54.2319
G0 F6000 X140.073 Y121.273
G1 F1500 E47.7319
G0 F6000 X140.361 Y121.181
G0 X141.893 Y121.181
G0 X142.073 Y121.181
G1 F1500 E54.2319
G1 F1200 X142.073 Y121.073 E54.23693
G1 X142.181 Y121.073 E54.24196
G1 X142.181 Y121.181 E54.24699
G1 X142.073 Y121.181 E54.25202
G0 F6000 X142.073 Y121.273
G1 F1500 E47.75202
G0 F6000 X142.073 Y120.893
G0 X142.073 Y119.361
G0 X142.073 Y119.181
G1 F1500 E54.25202
G1 F1200 X142.073 Y119.073 E54.25705
G1 X142.181 Y119.073 E54.26208
G1 X142.181 Y119.181 E54.2671
G1 X142.073 Y119.181 E54.27213
G0 F6000 X142.073 Y119.273
G1 F1500 E47.77213
G0 F6000 X141.893 Y119.181
G0 X140.361 Y119.181
G0 X140.073 Y119.181
G1 F1500 E54.27213
G1 F1200 X140.073 Y119.073 E54.27716
G1 X140.181 Y119.073 E54.28219
G1 X140.181 Y119.181 E54.28722
G1 X140.073 Y119.181 E54.29225
G0 F6000 X140.073 Y119.273
G1 F1500 E47.79225
G0 F6000 X140.073 Y118.893
G0 X140.073 Y117.361
G0 X140.073 Y117.181
G1 F1500 E54.29225
G1 F1200 X140.073 Y117.073 E54.29728
G1 X140.181 Y117.073 E54.30231
G1 X140.181 Y117.181 E54.30734
G1 X140.073 Y117.181 E54.31236
G0 F6000 X140.073 Y117.273
G1 F1500 E47.81236
G0 F6000 X140.361 Y117.181
G0 X141.893 Y117.181
G0 X142.073 Y117.181
G1 F1500 E54.31236
G1 F1200 X142.073 Y117.073 E54.31739
G1 X142.181 Y117.073 E54.32242
G1 X142.181 Y117.181 E54.32745
G1 X142.073 Y117.181 E54.33248
G0 F6000 X142.073 Y117.273
G1 F1500 E47.83248
G0 F6000 X142.073 Y116.893
G0 X142.073 Y115.361
G0 X142.073 Y115.181
G1 F1500 E54.33248
G1 F1200 X142.073 Y115.073 E54.33751
G1 X142.181 Y115.073 E54.34254
G1 X142.181 Y115.181 E54.34757
G1 X142.073 Y115.181 E54.3526
G0 F6000 X142.073 Y115.273
G1 F1500 E47.8526
G0 F6000 X141.893 Y115.181
G0 X140.361 Y115.181
G0 X140.073 Y115.181
G1 F1500 E54.3526
G1 F1200 X140.073 Y115.073 E54.35762
G1 X140.181 Y115.073 E54.36265
G1 X140.181 Y115.181 E54.36768
G1 X140.073 Y115.181 E54.37271
G0 F6000 X140.073 Y115.273
G1 F1500 E47.87271
G0 F6000 X140.073 Y114.893
G0 X140.073 Y113.361
G0 X140.073 Y113.181
G1 F1500 E54.37271
G1 F1200 X140.073 Y113.073 E54.37774
G1 X140.181 Y113.073 E54.38277
G1 X140.181 Y113.181 E54.3878
G1 X140.073 Y113.181 E54.39283
G0 F6000 X140.073 Y113.273
G1 F1500 E47.89283
G0 F6000 X140.361 Y113.181
G0 X141.893 Y113.181
G0 X142.073 Y113.181
G1 F1500 E54.39283
G1 F1200 X142.073 Y113.073 E54.39786
G1 X142.181 Y113.073 E54.40289
G1 X142.181 Y113.181 E54.40791
G1 X142.073 Y113.181 E54.41294
G0 F6000 X142.073 Y113.273
G1 F1500 E47.91294
G0 F6000 X142.073 Y112.893
G0 X142.073 Y111.361
G0 X142.073 Y111.181
G1 F1500 E54.41294
G1 F1200 X142.073 Y111.073 E54.41797
G1 X142.181 Y111.073 E54.423
G1 X142.181 Y111.181 E54.42803
G1 X142.073 Y111.181 E54.43306
G0 F6000 X142.073 Y111.273
G1 F1500 E47.93306
G0 F6000 X141.893 Y111.181
G0 X140.361 Y111.181
G0 X140.073 Y111.181
G1 F1500 E54.43306
G1 F1200 X140.073 Y111.073 E54.43809
G1 X140.181 Y111.073 E54.44312
G1 X140.181 Y111.181 E54.44815
G1 X140.073 Y111.181 E54.45317
G0 F6000 X140.073 Y111.273
G1 F1500 E47.95317
G0 F6000 X140.073 Y110.893
G0 X140.073 Y109.361
G0 X140.073 Y109.181
G1 F1500 E54.45317
G1 F1200 X140.073 Y109.073 E54.4582
G1 X140.181 Y109.073 E54.46323
G1 X140.181 Y109.181 E54.46826
G1 X140.073 Y109.181 E54.47329
G0 F6000 X140.073 Y109.273
G1 F1500 E47.97329
G0 F6000 X140.361 Y109.181
G0 X141.893 Y109.181
G0 X142.073 Y109.181
G1 F1500 E54.47329
G1 F1200 X142.073 Y109.073 E54.47832
G1 X142.181 Y109.073 E54.48335
G1 X142.181 Y109.181 E54.48838
